static/images/universiteitsbibliotheek.svg

<svg fill="none" height="24" viewBox="0 0 216 24" width="216" xmlns="http://www.w3.org/2000/svg"><g fill="#040606"><path d="m6.18018 4v2.29409h4.68002v13.70591h2.2941v-13.70591h4.68v-2.29409z"/><path d="m6.18018 20h2.2941v-11.41187h-2.2941z"/><path d="m15.54 20h2.2942v-11.41187h-2.2942z"/></g><path d="m34.3984 18.2734c2.9532 0 4.8672-1.8515 4.8672-4.7109v-1.3984h-4.625v1.414h2.8985v.25c-.0157 1.7344-1.2735 2.8985-3.1172 2.8985-2.1172 0-3.4453-1.6719-3.4453-4.3672v-.0156c0-2.6563 1.3203-4.3438 3.4062-4.3438 1.5469 0 2.625.75 3.0313 2.0859l.0234.0782h1.75l-.0156-.0782c-.4063-2.17965-2.2266-3.63278-4.7891-3.63278-3.1562 0-5.1953 2.32032-5.1953 5.89848v.0156c0 3.625 2.0156 5.9062 5.2109 5.9062zm7.1641-.2734h1.6953v-4.9766c0-1.3672.7734-2.2187 2.0156-2.2187s1.8282.6953 1.8282 2.1015v5.0938h1.6875v-5.4922c0-2.0234-1.0469-3.15624-2.9453-3.15624-1.2344 0-2.0469.54688-2.461 1.45314h-.125v-4.6172h-1.6953zm13.1563.1641c2.1718 0 3.3437-1.25 3.625-2.3672l.0156-.0703-1.6328.0078-.0313.0625c-.2031.4375-.8515.9765-1.9375.9765-1.3984 0-2.289-.9453-2.3203-2.5703h6.0156v-.5937c0-2.5469-1.4531-4.25784-3.8203-4.25784s-3.8984 1.77344-3.8984 4.42184v.0078c0 2.6876 1.5 4.3829 3.9844 4.3829zm-.0782-7.4219c1.1485 0 2 .7344 2.1328 2.25h-4.3125c.1485-1.461 1.0235-2.25 2.1797-2.25zm5.8282 7.2578h1.6953v-4.9766c0-1.3672.7734-2.2187 2.0156-2.2187s1.8281.6953 1.8281 2.1015v5.0938h1.6875v-5.4922c0-2.0234-1.0469-3.15624-2.9453-3.15624-1.2344 0-2.0469.54688-2.4609 1.45314h-.125v-1.28908h-1.6953zm12.7968.0547c.3282 0 .6406-.0391.9141-.0859v-1.3516c-.2344.0234-.3828.0312-.6406.0312-.836 0-1.1797-.375-1.1797-1.289v-4.5078h1.8203v-1.33598h-1.8203v-2.14062h-1.7266v2.14062h-1.3281v1.33598h1.3281v4.914c0 1.6328.7656 2.2891 2.6328 2.2891zm12.0156.2187c2.836 0 4.5626-1.6796 4.5626-4.1562v-7.39064h-1.75v7.25784c0 1.6328-1.0157 2.7422-2.8126 2.7422-1.7968 0-2.8203-1.1094-2.8203-2.7422v-7.25784h-1.75v7.39064c0 2.4766 1.7422 4.1562 4.5703 4.1562zm7.1876-.2734h1.6953v-4.9766c0-1.3672.7734-2.2187 2.0156-2.2187s1.8281.6953 1.8281 2.1015v5.0938h1.6875v-5.4922c0-2.0234-1.0469-3.15624-2.9453-3.15624-1.2344 0-2.0469.54688-2.4609 1.45314h-.125v-1.28908h-1.6953zm10.4762-10c.578 0 1.063-.47656 1.063-1.05469 0-.58593-.485-1.0625-1.063-1.0625-.586 0-1.062.47657-1.062 1.0625 0 .57813.476 1.05469 1.062 1.05469zm-.851 10h1.687v-8.48438h-1.687zm6.492 0h1.805l3.062-8.48438h-1.781l-2.11 6.76558h-.132l-2.118-6.76558h-1.796zm9.805.1641c2.171 0 3.343-1.25 3.625-2.3672l.015-.0703-1.633.0078-.031.0625c-.203.4375-.851.9765-1.937.9765-1.399 0-2.289-.9453-2.321-2.5703h6.016v-.5937c0-2.5469-1.453-4.25784-3.82-4.25784s-3.899 1.77344-3.899 4.42184v.0078c0 2.6876 1.5 4.3829 3.985 4.3829zm-.079-7.4219c1.149 0 2 .7344 2.133 2.25h-4.312c.148-1.461 1.023-2.25 2.179-2.25zm5.829 7.2578h1.695v-5.0703c0-1.2266.883-2.0235 2.18-2.0235.32 0 .609.0391.914.1016v-1.56249c-.172-.03906-.469-.07812-.742-.07812-1.133 0-1.922.53125-2.227 1.42971h-.125v-1.28128h-1.695zm9.32.1641c2.016 0 3.516-1.0703 3.516-2.6407v-.0156c0-1.2266-.782-1.9219-2.415-2.3047l-1.343-.3047c-.953-.2265-1.344-.5546-1.344-1.0859v-.0156c0-.6797.672-1.1407 1.602-1.1407.953 0 1.554.4454 1.718 1.0391v.0156h1.617v-.0078c-.148-1.3828-1.39-2.35154-3.328-2.35154-1.922 0-3.296 1.06254-3.296 2.53904v.0078c0 1.2422.742 1.9688 2.343 2.336l1.352.3125c.984.2265 1.383.5859 1.383 1.1172v.0156c0 .6953-.727 1.1719-1.774 1.1719-1.008 0-1.625-.4297-1.836-1.0704l-.008-.0078h-1.695v.0078c.164 1.4219 1.461 2.3829 3.508 2.3829zm6.422-10.1641c.578 0 1.062-.47656 1.062-1.05469 0-.58593-.484-1.0625-1.062-1.0625-.586 0-1.063.47657-1.063 1.0625 0 .57813.477 1.05469 1.063 1.05469zm-.852 10h1.688v-8.48438h-1.688zm7.36.0547c.328 0 .64-.0391.914-.0859v-1.3516c-.235.0234-.383.0312-.641.0312-.836 0-1.18-.375-1.18-1.289v-4.5078h1.821v-1.33598h-1.821v-2.14062h-1.726v2.14062h-1.328v1.33598h1.328v4.914c0 1.6328.765 2.2891 2.633 2.2891zm3.718 2.9297c1.719 0 2.579-.6328 3.297-2.6563l3.156-8.81248h-1.781l-2.117 6.78128h-.148l-2.125-6.78128h-1.829l3.079 8.49218-.125.4375c-.25.8594-.727 1.1953-1.516 1.1953-.195 0-.406-.0078-.57-.0312v1.3359c.218.0235.468.0391.679.0391zm12.743-2.9844h7.031v-1.5078h-5.281v-9.76564h-1.75zm9.937-10c.578 0 1.063-.47656 1.063-1.05469 0-.58593-.485-1.0625-1.063-1.0625-.586 0-1.062.47657-1.062 1.0625 0 .57813.476 1.05469 1.062 1.05469zm-.851 10h1.687v-8.48438h-1.687zm8.664.1406c2.14 0 3.515-1.7109 3.515-4.375v-.0156c0-2.6875-1.359-4.38281-3.515-4.38281-1.164 0-2.157.57812-2.61 1.49221h-.125v-4.6719h-1.695v11.8125h1.695v-1.3359h.125c.492.9297 1.422 1.4765 2.61 1.4765zm-.477-1.4453c-1.414 0-2.289-1.1172-2.289-2.9297v-.0156c0-1.8125.875-2.9297 2.289-2.9297s2.266 1.1094 2.266 2.9297v.0156c0 1.8203-.852 2.9297-2.266 2.9297zm6.016 1.3047h1.695v-5.0703c0-1.2266.883-2.0235 2.18-2.0235.32 0 .609.0391.914.1016v-1.56249c-.172-.03906-.469-.07812-.742-.07812-1.133 0-1.922.53125-2.227 1.42971h-.125v-1.28128h-1.695zm8.671.1406c1.126 0 2.016-.4844 2.516-1.3437h.133v1.2031h1.68v-5.8047c0-1.7812-1.203-2.84374-3.336-2.84374-1.93 0-3.266.92964-3.469 2.32034l-.008.0547h1.633l.008-.0313c.203-.6015.82-.9453 1.758-.9453 1.148 0 1.734.5156 1.734 1.4453v.75l-2.297.1328c-2.023.125-3.164 1.0078-3.164 2.5235v.0156c0 1.539 1.195 2.5234 2.812 2.5234zm-1.124-2.5937v-.0157c0-.7656.531-1.1874 1.703-1.2578l2.07-.1328v.7266c0 1.0937-.93 1.9219-2.195 1.9219-.914 0-1.578-.461-1.578-1.2422zm7.843 2.4531h1.696v-5.0703c0-1.2266.882-2.0235 2.179-2.0235.321 0 .61.0391.914.1016v-1.56249c-.172-.03906-.468-.07812-.742-.07812-1.133 0-1.922.53125-2.226 1.42971h-.125v-1.28128h-1.696zm7.281 2.9844c1.719 0 2.579-.6328 3.297-2.6563l3.157-8.81248h-1.782l-2.117 6.78128h-.148l-2.125-6.78128h-1.828l3.078 8.49218-.125.4375c-.25.8594-.727 1.1953-1.516 1.1953-.195 0-.406-.0078-.57-.0312v1.3359c.219.0235.469.0391.679.0391z" fill="#1a1a1a"/></svg>

<svg width="216" height="24" viewBox="0 0 216 24" fill="none" xmlns="http://www.w3.org/2000/svg">
<path d="M6.18018 4V6.29409H10.8602V20H13.1543V6.29409H17.8343V4H6.18018Z" fill="#040606"/>
<path d="M6.18018 20H8.47428V8.58813H6.18018V20" fill="#040606"/>
<path d="M15.54 20H17.8342V8.58813H15.54V20" fill="#040606"/>
<path d="M34.3984 18.2734C37.3516 18.2734 39.2656 16.4219 39.2656 13.5625V12.1641H34.6406V13.5781H37.5391V13.8281C37.5234 15.5625 36.2656 16.7266 34.4219 16.7266C32.3047 16.7266 30.9766 15.0547 30.9766 12.3594V12.3438C30.9766 9.6875 32.2969 8 34.3828 8C35.9297 8 37.0078 8.75 37.4141 10.0859L37.4375 10.1641H39.1875L39.1719 10.0859C38.7656 7.90625 36.9453 6.45312 34.3828 6.45312C31.2266 6.45312 29.1875 8.77344 29.1875 12.3516V12.3672C29.1875 15.9922 31.2031 18.2734 34.3984 18.2734ZM41.5625 18H43.2578V13.0234C43.2578 11.6562 44.0312 10.8047 45.2734 10.8047C46.5156 10.8047 47.1016 11.5 47.1016 12.9062V18H48.7891V12.5078C48.7891 10.4844 47.7422 9.35156 45.8438 9.35156C44.6094 9.35156 43.7969 9.89844 43.3828 10.8047H43.2578V6.1875H41.5625V18ZM54.7188 18.1641C56.8906 18.1641 58.0625 16.9141 58.3438 15.7969L58.3594 15.7266L56.7266 15.7344L56.6953 15.7969C56.4922 16.2344 55.8438 16.7734 54.7578 16.7734C53.3594 16.7734 52.4688 15.8281 52.4375 14.2031H58.4531V13.6094C58.4531 11.0625 57 9.35156 54.6328 9.35156C52.2656 9.35156 50.7344 11.125 50.7344 13.7734V13.7812C50.7344 16.4688 52.2344 18.1641 54.7188 18.1641ZM54.6406 10.7422C55.7891 10.7422 56.6406 11.4766 56.7734 12.9922H52.4609C52.6094 11.5312 53.4844 10.7422 54.6406 10.7422ZM60.4688 18H62.1641V13.0234C62.1641 11.6562 62.9375 10.8047 64.1797 10.8047C65.4219 10.8047 66.0078 11.5 66.0078 12.9062V18H67.6953V12.5078C67.6953 10.4844 66.6484 9.35156 64.75 9.35156C63.5156 9.35156 62.7031 9.89844 62.2891 10.8047H62.1641V9.51562H60.4688V18ZM73.2656 18.0547C73.5938 18.0547 73.9062 18.0156 74.1797 17.9688V16.6172C73.9453 16.6406 73.7969 16.6484 73.5391 16.6484C72.7031 16.6484 72.3594 16.2734 72.3594 15.3594V10.8516H74.1797V9.51562H72.3594V7.375H70.6328V9.51562H69.3047V10.8516H70.6328V15.7656C70.6328 17.3984 71.3984 18.0547 73.2656 18.0547ZM85.2812 18.2734C88.1172 18.2734 89.8438 16.5938 89.8438 14.1172V6.72656H88.0938V13.9844C88.0938 15.6172 87.0781 16.7266 85.2812 16.7266C83.4844 16.7266 82.4609 15.6172 82.4609 13.9844V6.72656H80.7109V14.1172C80.7109 16.5938 82.4531 18.2734 85.2812 18.2734ZM92.4688 18H94.1641V13.0234C94.1641 11.6562 94.9375 10.8047 96.1797 10.8047C97.4219 10.8047 98.0078 11.5 98.0078 12.9062V18H99.6953V12.5078C99.6953 10.4844 98.6484 9.35156 96.75 9.35156C95.5156 9.35156 94.7031 9.89844 94.2891 10.8047H94.1641V9.51562H92.4688V18ZM102.945 8C103.523 8 104.008 7.52344 104.008 6.94531C104.008 6.35938 103.523 5.88281 102.945 5.88281C102.359 5.88281 101.883 6.35938 101.883 6.94531C101.883 7.52344 102.359 8 102.945 8ZM102.094 18H103.781V9.51562H102.094V18ZM108.586 18H110.391L113.453 9.51562H111.672L109.562 16.2812H109.43L107.312 9.51562H105.516L108.586 18ZM118.391 18.1641C120.562 18.1641 121.734 16.9141 122.016 15.7969L122.031 15.7266L120.398 15.7344L120.367 15.7969C120.164 16.2344 119.516 16.7734 118.43 16.7734C117.031 16.7734 116.141 15.8281 116.109 14.2031H122.125V13.6094C122.125 11.0625 120.672 9.35156 118.305 9.35156C115.938 9.35156 114.406 11.125 114.406 13.7734V13.7812C114.406 16.4688 115.906 18.1641 118.391 18.1641ZM118.312 10.7422C119.461 10.7422 120.312 11.4766 120.445 12.9922H116.133C116.281 11.5312 117.156 10.7422 118.312 10.7422ZM124.141 18H125.836V12.9297C125.836 11.7031 126.719 10.9062 128.016 10.9062C128.336 10.9062 128.625 10.9453 128.93 11.0078V9.44531C128.758 9.40625 128.461 9.36719 128.188 9.36719C127.055 9.36719 126.266 9.89844 125.961 10.7969H125.836V9.51562H124.141V18ZM133.461 18.1641C135.477 18.1641 136.977 17.0938 136.977 15.5234V15.5078C136.977 14.2812 136.195 13.5859 134.562 13.2031L133.219 12.8984C132.266 12.6719 131.875 12.3438 131.875 11.8125V11.7969C131.875 11.1172 132.547 10.6562 133.477 10.6562C134.43 10.6562 135.031 11.1016 135.195 11.6953V11.7109H136.812V11.7031C136.664 10.3203 135.422 9.35156 133.484 9.35156C131.562 9.35156 130.188 10.4141 130.188 11.8906V11.8984C130.188 13.1406 130.93 13.8672 132.531 14.2344L133.883 14.5469C134.867 14.7734 135.266 15.1328 135.266 15.6641V15.6797C135.266 16.375 134.539 16.8516 133.492 16.8516C132.484 16.8516 131.867 16.4219 131.656 15.7812L131.648 15.7734H129.953V15.7812C130.117 17.2031 131.414 18.1641 133.461 18.1641ZM139.883 8C140.461 8 140.945 7.52344 140.945 6.94531C140.945 6.35938 140.461 5.88281 139.883 5.88281C139.297 5.88281 138.82 6.35938 138.82 6.94531C138.82 7.52344 139.297 8 139.883 8ZM139.031 18H140.719V9.51562H139.031V18ZM146.391 18.0547C146.719 18.0547 147.031 18.0156 147.305 17.9688V16.6172C147.07 16.6406 146.922 16.6484 146.664 16.6484C145.828 16.6484 145.484 16.2734 145.484 15.3594V10.8516H147.305V9.51562H145.484V7.375H143.758V9.51562H142.43V10.8516H143.758V15.7656C143.758 17.3984 144.523 18.0547 146.391 18.0547ZM150.109 20.9844C151.828 20.9844 152.688 20.3516 153.406 18.3281L156.562 9.51562H154.781L152.664 16.2969H152.516L150.391 9.51562H148.562L151.641 18.0078L151.516 18.4453C151.266 19.3047 150.789 19.6406 150 19.6406C149.805 19.6406 149.594 19.6328 149.43 19.6094V20.9453C149.648 20.9688 149.898 20.9844 150.109 20.9844ZM162.852 18H169.883V16.4922H164.602V6.72656H162.852V18ZM172.789 8C173.367 8 173.852 7.52344 173.852 6.94531C173.852 6.35938 173.367 5.88281 172.789 5.88281C172.203 5.88281 171.727 6.35938 171.727 6.94531C171.727 7.52344 172.203 8 172.789 8ZM171.938 18H173.625V9.51562H171.938V18ZM180.602 18.1406C182.742 18.1406 184.117 16.4297 184.117 13.7656V13.75C184.117 11.0625 182.758 9.36719 180.602 9.36719C179.438 9.36719 178.445 9.94531 177.992 10.8594H177.867V6.1875H176.172V18H177.867V16.6641H177.992C178.484 17.5938 179.414 18.1406 180.602 18.1406ZM180.125 16.6953C178.711 16.6953 177.836 15.5781 177.836 13.7656V13.75C177.836 11.9375 178.711 10.8203 180.125 10.8203C181.539 10.8203 182.391 11.9297 182.391 13.75V13.7656C182.391 15.5859 181.539 16.6953 180.125 16.6953ZM186.141 18H187.836V12.9297C187.836 11.7031 188.719 10.9062 190.016 10.9062C190.336 10.9062 190.625 10.9453 190.93 11.0078V9.44531C190.758 9.40625 190.461 9.36719 190.188 9.36719C189.055 9.36719 188.266 9.89844 187.961 10.7969H187.836V9.51562H186.141V18ZM194.812 18.1406C195.938 18.1406 196.828 17.6562 197.328 16.7969H197.461V18H199.141V12.1953C199.141 10.4141 197.938 9.35156 195.805 9.35156C193.875 9.35156 192.539 10.2812 192.336 11.6719L192.328 11.7266H193.961L193.969 11.6953C194.172 11.0938 194.789 10.75 195.727 10.75C196.875 10.75 197.461 11.2656 197.461 12.1953V12.9453L195.164 13.0781C193.141 13.2031 192 14.0859 192 15.6016V15.6172C192 17.1562 193.195 18.1406 194.812 18.1406ZM193.688 15.5469V15.5312C193.688 14.7656 194.219 14.3438 195.391 14.2734L197.461 14.1406V14.8672C197.461 15.9609 196.531 16.7891 195.266 16.7891C194.352 16.7891 193.688 16.3281 193.688 15.5469ZM201.531 18H203.227V12.9297C203.227 11.7031 204.109 10.9062 205.406 10.9062C205.727 10.9062 206.016 10.9453 206.32 11.0078V9.44531C206.148 9.40625 205.852 9.36719 205.578 9.36719C204.445 9.36719 203.656 9.89844 203.352 10.7969H203.227V9.51562H201.531V18ZM208.812 20.9844C210.531 20.9844 211.391 20.3516 212.109 18.3281L215.266 9.51562H213.484L211.367 16.2969H211.219L209.094 9.51562H207.266L210.344 18.0078L210.219 18.4453C209.969 19.3047 209.492 19.6406 208.703 19.6406C208.508 19.6406 208.297 19.6328 208.133 19.6094V20.9453C208.352 20.9688 208.602 20.9844 208.812 20.9844Z" fill="#1A1A1A"/>
</svg>
